X:3376
T:La Bussière (S. Desaunay)
O:england
C:Trad 1, 86
M:2/4
L:1/16
K:G
Bc d2 c3B|ABAG E3G|ADAd cBAG-|\
ABc B2 AG|BcdB cdcB|
ABAG EFEG|ADAd cBAG-|GAE2D4:|\
|:A2c2 B+A-c-+ +Ac+B+Ac+B|\
+c2e2+ d+c-e-+ +ce+def|gdeG BedA|
Bcfd (3efe d2|+A2c2+ B+A-c-+ +Ac+B+Ac+B|\
+c2e2+ d+c-e-+ +ce+def|gdeG BedA|Bc (3faf D4:|


